packages/core/src/svg/ui/hammers.svg

<svg width="24" height="24" viewBox="0 0 24 24" fill="none" xmlns="http://www.w3.org/2000/svg">
<path d="M7.70276 2L2.71284 6.98991L2 10.5541L3.42569 11.9798L6.13993 9.26559L17.4589 20.5846L19.5975 18.4461L8.27846 7.12705L10.5541 4.85138L7.70276 2Z" fill="currentColor"/>
<path d="M21.2872 6.98993L16.2972 2.00002L13.4459 4.8514L15.8952 7.30076L12.8949 10.3011L15.0334 12.4396L18.0338 9.43929L20.5743 11.9798L22 10.5542L21.2872 6.98993Z" fill="currentColor"/>
<path d="M11.4692 16.0039L9.33065 13.8653L4.57621 18.6198L6.71474 20.7583L11.4692 16.0039Z" fill="currentColor"/>
</svg>

<svg xmlns="http://www.w3.org/2000/svg" viewBox="0 0 24 24"><g fill="none" fill-rule="evenodd"><path d="M0 0h24v24H0z"/><path d="M7.703 2l-4.99 4.99L2 10.554l1.426 1.426L6.14 9.266l11.319 11.319 2.139-2.139L8.277 7.127l2.276-2.276L7.703 2z" fill="currentColor"/><path d="M21.287 6.99L16.297 2l-2.851 2.851 2.45 2.45-3.001 3 2.138 2.139 3-3 2.541 2.54L22 10.554l-.713-3.564zM11.47 16.004l-2.14-2.139-4.754 4.755 2.139 2.138 4.754-4.754z" fill="currentColor"/></g></svg>
